!!!!SEGMENT: pl-wtm--r-1350--011_stefani-jozef--fraszka-muzyczna-andantino.krn
!!!cenid: 18xx:1860
!!!COM: Stefani, Józef
!!!COM-rismid: pe30024097
!!!CDT: 1800/04/16-1876/03/19
!!!CNT: Polish
!!!GTL: Fraszka muzyczna
!!!OTL: Andantino
!!!PDT:
!!!AGN: Secular
!!!SMS-siglum: PL-Wtm
!!!SMS-shelfmark: R 1350
!!!SMS-shelfwork: 011 G
!!!SMS-variant:
!!!SMS-altvar:
!!!NIFC-rismid: 1001119475
!!!URL-scan: http://repozytorium.nifc.pl/skany/pl-wtm-nut--r1350
!!!ONB-nifc: UWAGA: skan 0006
!!!OMD: Andantino.
**kern	**fing	**kern	**fing	**dynam
*part1	*	*part1	*	*part1
*staff2	*	*staff1	*	*
*I"Fortepian	*	*I"Fortepian	*	*
*I'pf	*	*I'pf	*	*
*clefG2	*	*clefG2	*	*
*k[]	*	*k[]	*	*
*C:	*	*C:	*	*
*M2/4	*	*M2/4	*	*
=1	=1	=1	=1	=1
*	*^	*	*	*
2g 2e 2c/	1	3 5	8cc'\L	1	mf
.	.	.	(8ff#X\	4	.
.	.	.	8gg\)	5	.
.	.	.	8ee'\J	.	.
=2	=2	=2	=2	=2	=2
2g 2f 2B/	1	2 5	8dd'\L	2	.
.	.	.	(8ff#X\	.	.
.	.	.	8gg\)	.	.
.	.	.	8ffn'\J	.	.
*	*v	*v	*	*	*
=3	=3	=3	=3	=3
2g 2e 2c/	.	8ee'\L	3	.
.	.	(8cc\	.	.
.	.	8gg\)	.	.
.	.	8ee'\J	.	.
=4	=4	=4	=4	=4
4g 4f 4B/	.	8dd\L	.	.
.	.	8ee\J	.	.
4g 4f 4B/	.	4dd\	.	.
!!LO:LB:g=original
=5	=5	=5	=5	=5
2g 2e 2c/	.	8cc'\L	1	.
.	.	(8ff#X\	4	.
.	.	8gg\)	5	.
.	.	8ee'\J	.	.
=6	=6	=6	=6	=6
2g 2f 2B/	.	8dd'\L	.	.
.	.	(8ff#X\	.	.
.	.	8gg\)	.	.
.	.	8ffn'\J	.	.
=7	=7	=7	=7	=7
4g 4e 4c/	.	8ee'\L	.	.
.	.	(8cc\	.	.
4g 4f 4B/	.	8dd\)	.	.
.	.	8gg'\J	.	.
=8	=8	=8	=8	=8
4g 4e 4c/	.	8cc\L	.	.
.	.	8ee\J	.	.
4g 4e 4c/	.	4cc\	.	.
==	==	==	==	==
*-	*-	*-	*-	*-
!!!system-decoration: {(s1,s2)}
!!!ENC: Marta Lawrence
!!!END: 2021-05-04
!!!ENC: Krzysztof Stępień
!!!END: 2021-04-10
